src/assets/svg-icons/element-icon.svg

<svg width="518" height="112" viewBox="0 0 518 112" fill="none" xmlns="http://www.w3.org/2000/svg">
<path fill-rule="evenodd" clip-rule="evenodd" d="M56 112C86.9279 112 112 86.9279 112 56C112 25.0721 86.9279 0 56 0C25.0721 0 0 25.0721 0 56C0 86.9279 25.0721 112 56 112Z" fill="#0DBD8B"/>
<path fill-rule="evenodd" clip-rule="evenodd" d="M45.7615 26.093C45.7615 23.8325 47.5977 22.0001 49.8629 22.0001C65.2154 22.0001 77.6611 34.4199 77.6611 49.7406C77.6611 52.001 75.8248 53.8335 73.5597 53.8335C71.2945 53.8335 69.4583 52.001 69.4583 49.7406C69.4583 38.9408 60.6851 30.1859 49.8629 30.1859C47.5977 30.1859 45.7615 28.3534 45.7615 26.093Z" fill="white"/>
<path fill-rule="evenodd" clip-rule="evenodd" d="M85.8986 45.6477C88.1637 45.6477 89.9999 47.4801 89.9999 49.7406C89.9999 65.0612 77.5543 77.4811 62.2017 77.4811C59.9366 77.4811 58.1003 75.6486 58.1003 73.3882C58.1003 71.1277 59.9366 69.2953 62.2017 69.2953C73.024 69.2953 81.7972 60.5403 81.7972 49.7406C81.7972 47.4801 83.6334 45.6477 85.8986 45.6477Z" fill="white"/>
<path fill-rule="evenodd" clip-rule="evenodd" d="M66.3031 85.907C66.3031 88.1675 64.4668 89.9999 62.2017 89.9999C46.8492 89.9999 34.4035 77.58 34.4035 62.2594C34.4035 59.9989 36.2398 58.1665 38.5049 58.1665C40.77 58.1665 42.6063 59.9989 42.6063 62.2594C42.6063 73.0592 51.3795 81.8141 62.2017 81.8141C64.4668 81.8141 66.3031 83.6466 66.3031 85.907Z" fill="white"/>
<path fill-rule="evenodd" clip-rule="evenodd" d="M26.1014 66.3523C23.8363 66.3523 22.0001 64.5199 22.0001 62.2594C22 46.9388 34.4457 34.5189 49.7983 34.5189C52.0634 34.5189 53.8997 36.3514 53.8997 38.6118C53.8997 40.8723 52.0634 42.7047 49.7983 42.7047C38.976 42.7047 30.2028 51.4597 30.2028 62.2594C30.2028 64.5199 28.3666 66.3523 26.1014 66.3523Z" fill="white"/>
<path d="M197 63.5H157.5C157.967 67.6333 159.467 70.9333 162 73.4C164.533 75.8 167.867 77 172 77C174.733 77 177.2 76.3333 179.4 75C181.6 73.6667 183.167 71.8667 184.1 69.6H196.1C194.5 74.8667 191.5 79.1333 187.1 82.4C182.767 85.6 177.633 87.2 171.7 87.2C163.967 87.2 157.7 84.6333 152.9 79.5C148.167 74.3667 145.8 67.8667 145.8 60C145.8 52.3333 148.2 45.9 153 40.7C157.8 35.5 164 32.9 171.6 32.9C179.2 32.9 185.333 35.4667 190 40.6C194.733 45.6667 197.1 52.0667 197.1 59.8L197 63.5ZM171.6 42.6C167.867 42.6 164.767 43.7 162.3 45.9C159.833 48.1 158.3 51.0333 157.7 54.7H185.3C184.767 51.0333 183.3 48.1 180.9 45.9C178.5 43.7 175.4 42.6 171.6 42.6ZM205.289 70.5V11H217.189V70.7C217.189 73.3667 218.656 74.7 221.589 74.7L223.689 74.6V85.9C222.556 86.1 221.356 86.2 220.089 86.2C214.956 86.2 211.189 84.9 208.789 82.3C206.456 79.7 205.289 75.7667 205.289 70.5ZM279.109 63.5H239.609C240.076 67.6333 241.576 70.9333 244.109 73.4C246.643 75.8 249.976 77 254.109 77C256.843 77 259.309 76.3333 261.509 75C263.709 73.6667 265.276 71.8667 266.209 69.6H278.209C276.609 74.8667 273.609 79.1333 269.209 82.4C264.876 85.6 259.743 87.2 253.809 87.2C246.076 87.2 239.809 84.6333 235.009 79.5C230.276 74.3667 227.909 67.8667 227.909 60C227.909 52.3333 230.309 45.9 235.109 40.7C239.909 35.5 246.109 32.9 253.709 32.9C261.309 32.9 267.443 35.4667 272.109 40.6C276.843 45.6667 279.209 52.0667 279.209 59.8L279.109 63.5ZM253.709 42.6C249.976 42.6 246.876 43.7 244.409 45.9C241.943 48.1 240.409 51.0333 239.809 54.7H267.409C266.876 51.0333 265.409 48.1 263.009 45.9C260.609 43.7 257.509 42.6 253.709 42.6ZM332.798 56.2V86H320.898V54.9C320.898 47.0333 317.632 43.1 311.098 43.1C307.565 43.1 304.732 44.2333 302.598 46.5C300.532 48.7667 299.498 51.8667 299.498 55.8V86H287.598V34.1H298.598V41C299.865 38.6667 301.798 36.7333 304.398 35.2C306.998 33.6667 310.232 32.9 314.098 32.9C321.298 32.9 326.498 35.6333 329.698 41.1C334.098 35.6333 339.965 32.9 347.298 32.9C353.365 32.9 358.032 34.8 361.298 38.6C364.565 42.3333 366.198 47.2667 366.198 53.4V86H354.298V54.9C354.298 47.0333 351.032 43.1 344.498 43.1C340.898 43.1 338.032 44.2667 335.898 46.6C333.832 48.8667 332.798 52.0667 332.798 56.2ZM425.379 63.5H385.879C386.346 67.6333 387.846 70.9333 390.379 73.4C392.912 75.8 396.246 77 400.379 77C403.112 77 405.579 76.3333 407.779 75C409.979 73.6667 411.546 71.8667 412.479 69.6H424.479C422.879 74.8667 419.879 79.1333 415.479 82.4C411.146 85.6 406.012 87.2 400.079 87.2C392.346 87.2 386.079 84.6333 381.279 79.5C376.546 74.3667 374.179 67.8667 374.179 60C374.179 52.3333 376.579 45.9 381.379 40.7C386.179 35.5 392.379 32.9 399.979 32.9C407.579 32.9 413.712 35.4667 418.379 40.6C423.112 45.6667 425.479 52.0667 425.479 59.8L425.379 63.5ZM399.979 42.6C396.246 42.6 393.146 43.7 390.679 45.9C388.212 48.1 386.679 51.0333 386.079 54.7H413.679C413.146 51.0333 411.679 48.1 409.279 45.9C406.879 43.7 403.779 42.6 399.979 42.6ZM444.868 34.1V41C446.068 38.7333 448.035 36.8333 450.768 35.3C453.568 33.7 456.935 32.9 460.868 32.9C467.001 32.9 471.735 34.7667 475.068 38.5C478.468 42.2333 480.168 47.2 480.168 53.4V86H468.268V54.9C468.268 51.2333 467.401 48.3667 465.668 46.3C464.001 44.1667 461.435 43.1 457.968 43.1C454.168 43.1 451.168 44.2333 448.968 46.5C446.835 48.7667 445.768 51.9 445.768 55.9V86H433.868V34.1H444.868ZM514.922 75.4V85.7C513.455 86.1 511.389 86.3 508.722 86.3C498.589 86.3 493.522 81.2 493.522 71V43.6H485.622V34.1H493.522V20.6H505.422V34.1H515.122V43.6H505.422V69.8C505.422 73.8667 507.355 75.9 511.222 75.9L514.922 75.4Z" fill="black"/>
</svg>

<svg xmlns="http://www.w3.org/2000/svg" width="518" height="112" fill="none" viewBox="0 0 518 112"><path fill="#0DBD8B" fill-rule="evenodd" d="M56 112c30.928 0 56-25.072 56-56S86.928 0 56 0 0 25.072 0 56s25.072 56 56 56Z" clip-rule="evenodd"/><path fill="#fff" fill-rule="evenodd" d="M45.761 26.093A4.097 4.097 0 0 1 49.864 22C65.215 22 77.66 34.42 77.66 49.74a4.097 4.097 0 0 1-4.101 4.093 4.097 4.097 0 0 1-4.102-4.092c0-10.8-8.773-19.555-19.595-19.555a4.097 4.097 0 0 1-4.102-4.093Z" clip-rule="evenodd"/><path fill="#fff" fill-rule="evenodd" d="M85.899 45.648a4.097 4.097 0 0 1 4.1 4.093c0 15.32-12.445 27.74-27.797 27.74a4.097 4.097 0 0 1-4.102-4.093 4.097 4.097 0 0 1 4.102-4.093c10.822 0 19.595-8.755 19.595-19.554a4.097 4.097 0 0 1 4.102-4.093Z" clip-rule="evenodd"/><path fill="#fff" fill-rule="evenodd" d="M66.303 85.907A4.097 4.097 0 0 1 62.202 90c-15.353 0-27.798-12.42-27.798-27.74a4.097 4.097 0 0 1 4.1-4.093 4.097 4.097 0 0 1 4.102 4.092c0 10.8 8.773 19.555 19.596 19.555a4.097 4.097 0 0 1 4.101 4.093Z" clip-rule="evenodd"/><path fill="#fff" fill-rule="evenodd" d="M26.101 66.352a4.097 4.097 0 0 1-4.1-4.093C22 46.94 34.445 34.52 49.797 34.52a4.097 4.097 0 0 1 4.102 4.093 4.097 4.097 0 0 1-4.102 4.093c-10.822 0-19.595 8.755-19.595 19.554a4.097 4.097 0 0 1-4.102 4.093Z" clip-rule="evenodd"/><path fill="#000" d="M197 63.5h-39.5c.467 4.133 1.967 7.433 4.5 9.9 2.533 2.4 5.867 3.6 10 3.6 2.733 0 5.2-.667 7.4-2s3.767-3.133 4.7-5.4h12c-1.6 5.267-4.6 9.533-9 12.8-4.333 3.2-9.467 4.8-15.4 4.8-7.733 0-14-2.567-18.8-7.7-4.733-5.133-7.1-11.633-7.1-19.5 0-7.667 2.4-14.1 7.2-19.3 4.8-5.2 11-7.8 18.6-7.8 7.6 0 13.733 2.567 18.4 7.7 4.733 5.067 7.1 11.467 7.1 19.2l-.1 3.7Zm-25.4-20.9c-3.733 0-6.833 1.1-9.3 3.3-2.467 2.2-4 5.133-4.6 8.8h27.6c-.533-3.667-2-6.6-4.4-8.8-2.4-2.2-5.5-3.3-9.3-3.3Zm33.689 27.9V11h11.9v59.7c0 2.667 1.467 4 4.4 4l2.1-.1v11.3c-1.133.2-2.333.3-3.6.3-5.133 0-8.9-1.3-11.3-3.9-2.333-2.6-3.5-6.533-3.5-11.8Zm73.82-7h-39.5c.467 4.133 1.967 7.433 4.5 9.9 2.534 2.4 5.867 3.6 10 3.6 2.734 0 5.2-.667 7.4-2s3.767-3.133 4.7-5.4h12c-1.6 5.267-4.6 9.533-9 12.8-4.333 3.2-9.466 4.8-15.4 4.8-7.733 0-14-2.567-18.8-7.7-4.733-5.133-7.1-11.633-7.1-19.5 0-7.667 2.4-14.1 7.2-19.3 4.8-5.2 11-7.8 18.6-7.8 7.6 0 13.734 2.567 18.4 7.7 4.734 5.067 7.1 11.467 7.1 19.2l-.1 3.7Zm-25.4-20.9c-3.733 0-6.833 1.1-9.3 3.3-2.466 2.2-4 5.133-4.6 8.8h27.6c-.533-3.667-2-6.6-4.4-8.8-2.4-2.2-5.5-3.3-9.3-3.3Zm79.089 13.6V86h-11.9V54.9c0-7.867-3.266-11.8-9.8-11.8-3.533 0-6.366 1.133-8.5 3.4-2.066 2.267-3.1 5.367-3.1 9.3V86h-11.9V34.1h11V41c1.267-2.333 3.2-4.267 5.8-5.8 2.6-1.533 5.834-2.3 9.7-2.3 7.2 0 12.4 2.733 15.6 8.2 4.4-5.467 10.267-8.2 17.6-8.2 6.067 0 10.734 1.9 14 5.7 3.267 3.733 4.9 8.667 4.9 14.8V86h-11.9V54.9c0-7.867-3.266-11.8-9.8-11.8-3.6 0-6.466 1.167-8.6 3.5-2.066 2.267-3.1 5.467-3.1 9.6Zm92.581 7.3h-39.5c.467 4.133 1.967 7.433 4.5 9.9 2.533 2.4 5.867 3.6 10 3.6 2.733 0 5.2-.667 7.4-2s3.767-3.133 4.7-5.4h12c-1.6 5.267-4.6 9.533-9 12.8-4.333 3.2-9.467 4.8-15.4 4.8-7.733 0-14-2.567-18.8-7.7-4.733-5.133-7.1-11.633-7.1-19.5 0-7.667 2.4-14.1 7.2-19.3 4.8-5.2 11-7.8 18.6-7.8 7.6 0 13.733 2.567 18.4 7.7 4.733 5.067 7.1 11.467 7.1 19.2l-.1 3.7Zm-25.4-20.9c-3.733 0-6.833 1.1-9.3 3.3-2.467 2.2-4 5.133-4.6 8.8h27.6c-.533-3.667-2-6.6-4.4-8.8-2.4-2.2-5.5-3.3-9.3-3.3Zm44.889-8.5V41c1.2-2.267 3.167-4.167 5.9-5.7 2.8-1.6 6.167-2.4 10.1-2.4 6.133 0 10.867 1.867 14.2 5.6 3.4 3.733 5.1 8.7 5.1 14.9V86h-11.9V54.9c0-3.667-.867-6.533-2.6-8.6-1.667-2.133-4.233-3.2-7.7-3.2-3.8 0-6.8 1.133-9 3.4-2.133 2.267-3.2 5.4-3.2 9.4V86h-11.9V34.1h11Zm70.054 41.3v10.3c-1.467.4-3.533.6-6.2.6-10.133 0-15.2-5.1-15.2-15.3V43.6h-7.9v-9.5h7.9V20.6h11.9v13.5h9.7v9.5h-9.7v26.2c0 4.067 1.933 6.1 5.8 6.1l3.7-.5Z"/></svg>
